_site/images/features-page/icon-file.svg

<svg fill="none" height="40" viewBox="0 0 40 40" width="40" xmlns="http://www.w3.org/2000/svg"><path d="m32.5 40h-25c-4.1425 0-7.5-3.3575-7.5-7.5v-25c0-4.1425 3.3575-7.5 7.5-7.5h25c4.1425 0 7.5 3.3575 7.5 7.5v25c0 4.1425-3.3575 7.5-7.5 7.5z" fill="#65a2fd"/><path clip-rule="evenodd" d="m29 16.8075c-.0117-.1034-.0343-.2052-.0675-.3037v-.1013c-.0541-.1157-.1262-.222-.2137-.315l-6.75-6.75001c-.093-.08749-.1994-.15965-.315-.21374-.0336-.00478-.0677-.00478-.1013 0-.1143-.06554-.2405-.10761-.3713-.12375h-6.8062c-1.864 0-3.375 1.511-3.375 3.375v15.75c0 1.864 1.511 3.375 3.375 3.375h11.25c1.864 0 3.375-1.511 3.375-3.375v-11.25zm-11.2501 1.1925h-1.125c-.6213 0-1.125-.5037-1.125-1.125s.5037-1.125 1.125-1.125h1.125c.6213 0 1.125.5037 1.125 1.125s-.5037 1.125-1.125 1.125zm-2.25 3.375c0-.6213.5037-1.125 1.125-1.125h6.75c.6213 0 1.125.5037 1.125 1.125s-.5037 1.125-1.125 1.125h-6.75c-.6213 0-1.125-.5037-1.125-1.125zm9.6638-5.6253-2.9137-2.9138v1.7888c0 .6213.5037 1.125 1.125 1.125zm1.5866 12.3753c0 .6213-.5037 1.125-1.125 1.125h-11.25c-.6214 0-1.125-.5037-1.125-1.125v-15.75c0-.6213.5036-1.125 1.125-1.125h5.625v3.375c0 1.864 1.511 3.375 3.375 3.375h3.375zm-10.1254-3.375h6.75c.6213 0 1.125.5037 1.125 1.125s-.5037 1.125-1.125 1.125h-6.75c-.6213 0-1.125-.5037-1.125-1.125s.5037-1.125 1.125-1.125z" fill="#fff" fill-rule="evenodd"/></svg>

<svg width="40" height="40" viewBox="0 0 40 40" fill="none" xmlns="http://www.w3.org/2000/svg">
<path d="M32.5 40H7.5C3.3575 40 0 36.6425 0 32.5V7.5C0 3.3575 3.3575 0 7.5 0H32.5C36.6425 0 40 3.3575 40 7.5V32.5C40 36.6425 36.6425 40 32.5 40Z" fill="#65A2FD"/>
<path fill-rule="evenodd" clip-rule="evenodd" d="M29 16.8075C28.9883 16.7041 28.9657 16.6023 28.9325 16.5038V16.4025C28.8784 16.2868 28.8063 16.1805 28.7188 16.0875L21.9688 9.33749C21.8758 9.25 21.7694 9.17784 21.6538 9.12375C21.6202 9.11897 21.5861 9.11897 21.5525 9.12375C21.4382 9.05821 21.312 9.01614 21.1812 9H14.375C12.511 9 11 10.511 11 12.375V28.125C11 29.989 12.511 31.5 14.375 31.5H25.625C27.489 31.5 29 29.989 29 28.125V16.875V16.8075ZM17.7499 18H16.6249C16.0036 18 15.4999 17.4963 15.4999 16.875C15.4999 16.2537 16.0036 15.75 16.6249 15.75H17.7499C18.3712 15.75 18.8749 16.2537 18.8749 16.875C18.8749 17.4963 18.3712 18 17.7499 18ZM15.4999 21.375C15.4999 20.7537 16.0036 20.25 16.6249 20.25H23.3749C23.9962 20.25 24.4999 20.7537 24.4999 21.375C24.4999 21.9963 23.9962 22.5 23.3749 22.5H16.6249C16.0036 22.5 15.4999 21.9963 15.4999 21.375ZM25.1637 15.7497L22.25 12.8359V14.6247C22.25 15.246 22.7537 15.7497 23.375 15.7497H25.1637ZM26.7503 28.125C26.7503 28.7463 26.2466 29.25 25.6253 29.25H14.3753C13.7539 29.25 13.2503 28.7463 13.2503 28.125V12.375C13.2503 11.7537 13.7539 11.25 14.3753 11.25H20.0003V14.625C20.0003 16.489 21.5113 18 23.3753 18H26.7503V28.125ZM16.6249 24.75H23.3749C23.9962 24.75 24.4999 25.2537 24.4999 25.875C24.4999 26.4963 23.9962 27 23.3749 27H16.6249C16.0036 27 15.4999 26.4963 15.4999 25.875C15.4999 25.2537 16.0036 24.75 16.6249 24.75Z" fill="white"/>
</svg>
